X: 20342
Q: "Allegretto"
M: 6/8
L: 1/8
K: G
|:\
d2d (dc).B | e2f g3 | (de).d (dc).B | e2f gdB |\
d2d (dc).B | e>fe e>fg | (de).c (Bc).A | G2A ( BG).E |
"^8vo _ _ _"{A}GFG B<dz | {B}A^GA c<ez | {A}GFG G2A | B2c (BG)E |\
{A}GFG (B<d)z | (c<e)z (B<d)z | (e<g)z (B<d)z | G2A (BG)E |]



